X: 10563
T: PARTANT POUR LA SYRIE
T: Romance of Dunois
O: French air.
Q: "Moderate."
%R: air, march
B: W. Hamilton "Universal Tune-Book" Vol. 1 Glasgow 1844 p.56 #3 (and p.57 #1)
S: http://imslp.org/wiki/Hamilton's_Universal_Tune-Book_(Various)
Z: 2016 John Chambers <jc:trillian.mit.edu>
N: There are two endings, but no repeat symbols.
M: C
L: 1/8
K: F
% - - - - - - - - - - - - - - - - - - - - - - - - -
c2 !f!|\
c3c d2e2 | f3f e2ze |\
f3c A2c2 | G4 z2c2 |\
=B3B c2d2 | e3d c2zc |\
d2c2 =B2d2 | c4 z2 |]\
!p!c2 |\
(B2c2) (A2c2) | (B3A G2)zc |\
(B2c2) (A2c2) |
G4 z2(cB) |\
A3"cres."B (cd).e.f | g3e c2zc |\
!f!f3f e>fg>e | f4 z2c>B |\
A3B (cd).ef | g3e c2zc |\
[1 fcba agfe | f4 z2 |]\
[2 f3d (cBA).G | F4 z2 |]
% - - - - - - - - - - - - - - - - - - - - - - - - -

% (Continued from previous page)

%%sep 1 1 500
%%sep 1 1 500

